X: 23079
T: Laughing Minstrel
R: hornpipe
M: 4/4
K: Dmajor
DCDE =FEFA|^A=A^Ad cdeg|=fdge afed|ced_B A2 AG|
FG (3AGF GABA|^GBed cba=g|(3fga fd Bgec|d2 dc d2:|

